X: 38502
T: Steeplechase, The
R: reel
M: 4/4
K: Cmajor
|:D2CD E~G3|Addc dfed|cBcA GAcA|GECE D~G,|
c ~C3 E~G3|Addc dfed|cBcA GAcA|GEDF EC C2:|
|:c2ec gcea|gedc BcdB|c2ec gcea|gedc BGAB|
c2ec gcea|gedc ABcd|e~g e~a|gede c4:|

